Hatter-kde/actions/22/lighttable.svg

<svg xmlns="http://www.w3.org/2000/svg" viewBox="0 0 22 22">
  <defs id="defs3051">
    <style type="text/css" id="current-color-scheme">
      .ColorScheme-Text {
        color:#363636;
      }
      </style>
  </defs>
 <path 
     style="fill:currentColor;fill-opacity:1;stroke:none" 
     d="M 11 3 C 6.58172 3 3 6.58172 3 11 C 3 13.0276 3.75669 14.87132 5 16.28125 C 5.2080306 16.548492 5.4988118 16.786346 5.71875 17 C 7.12868 18.24331 8.9724 19 11 19 C 15.41828 19 19 15.41828 19 11 C 19 8.9724 18.24331 7.12868 17 5.71875 C 16.88864 5.59254 16.77522 5.46272 16.65625 5.34375 L 16.28125 5 C 14.87132 3.75669 13.0276 3 11 3 z M 15.949219 6.0507812 C 16.646582 6.7510892 17.187748 7.5911286 17.537109 8.515625 C 17.538079 8.517625 17.540016 8.5184844 17.541016 8.5214844 C 17.547616 8.5409864 17.554127 8.5605181 17.560547 8.5800781 C 17.844421 9.2649175 17.918285 9.9631646 17.984375 10.675781 C 17.989375 10.783991 17.998047 10.8904 17.998047 11 L 17.998047 11.042969 C 17.929577 14.588238 15.40522 17.22367 12.044922 17.914062 C 11.916582 17.933263 11.788713 17.954597 11.658203 17.966797 C 11.522354 17.977277 11.386229 17.983798 11.25 17.986328 C 11.166306 17.989328 11.08443 18 11 18 C 10.9851 18 10.969978 17.996094 10.955078 17.996094 C 10.132728 18.009284 9.3583109 17.803379 8.5976562 17.564453 C 8.5520562 17.547453 8.5060572 17.531672 8.4609375 17.513672 C 8.2901397 17.446732 8.1220433 17.373111 7.9570312 17.292969 C 7.2509419 16.954803 6.6065835 16.500583 6.0507812 15.949219 L 15.949219 6.0507812 z "
     class="ColorScheme-Text"
     />
</svg>

<?xml version="1.0" encoding="UTF-8"?>
<svg viewBox="0 0 22 22" xmlns="http://www.w3.org/2000/svg">
 <defs id="defs3051">
  <style id="current-color-scheme" type="text/css">.ColorScheme-Text {
        color:#363636;
      }</style>
 </defs>
 <path class="ColorScheme-Text" d="m11 3c-4.4183 0-8 3.5817-8 8 0 2.0276 0.75669 3.8713 2 5.2812 0.20803 0.26724 0.49881 0.5051 0.71875 0.71875 1.4099 1.2433 3.2536 2 5.2812 2 4.4183 0 8-3.5817 8-8 0-2.0276-0.75669-3.8713-2-5.2812-0.11136-0.12621-0.22478-0.25603-0.34375-0.375l-0.375-0.34375c-1.4099-1.2433-3.2536-2-5.2812-2zm4.9492 3.0508c0.69736 0.70031 1.2385 1.5403 1.5879 2.4648 9.7e-4 2e-3 0.002907 0.0028594 0.003907 0.0058594 0.0066 0.019502 0.013111 0.039034 0.019531 0.058594 0.28387 0.68484 0.35774 1.3831 0.42383 2.0957 5e-3 0.10821 0.013672 0.21462 0.013672 0.32422v0.042969c-0.06847 3.5453-2.5928 6.1807-5.9531 6.8711-0.12834 0.019201-0.25621 0.040535-0.38672 0.052735-0.13585 0.01048-0.27197 0.017001-0.4082 0.019531-0.083694 3e-3 -0.16557 0.013672-0.25 0.013672-0.0149 0-0.030022-0.003906-0.044922-0.003906-0.82235 0.01319-1.5968-0.19272-2.3574-0.43164-0.0456-0.017-0.091599-0.032781-0.13672-0.050781-0.1708-0.06694-0.33889-0.14056-0.50391-0.2207-0.70609-0.33817-1.3504-0.79239-1.9062-1.3438l9.8984-9.8984z" fill="currentColor"/>
</svg>
